dist/assets/img/icons/bus.svg

<svg width="35" height="44" viewBox="0 0 35 44" fill="none" xmlns="http://www.w3.org/2000/svg">
<g id="a" clip-path="url(#clip0_2_7123)">
<path id="Vector" fill-rule="evenodd" clip-rule="evenodd" d="M12.78 3.64999C11.78 3.64999 10.95 2.82999 10.95 1.81999C10.95 0.80999 11.77 -0.0100098 12.78 -0.0100098C13.79 -0.0100098 14.61 0.80999 14.61 1.81999C14.61 2.82999 13.79 3.64999 12.78 3.64999ZM21.91 3.64999C20.91 3.64999 20.08 2.82999 20.08 1.81999C20.08 0.80999 20.9 -0.0100098 21.91 -0.0100098C22.92 -0.0100098 23.74 0.80999 23.74 1.81999C23.74 2.82999 22.92 3.64999 21.91 3.64999ZM10.96 10.04H23.74V8.20999H10.95V10.04H10.96ZM10.96 7.29999H23.74C24.24 7.29999 24.65 7.70999 24.65 8.20999V10.04C24.65 10.54 24.24 10.95 23.74 10.95H10.95C10.45 10.95 10.04 10.54 10.04 10.04V8.20999C10.04 7.70999 10.45 7.29999 10.95 7.29999H10.96ZM6.38999 31.04C5.38999 31.04 4.55999 31.86 4.55999 32.87C4.55999 33.88 5.37999 34.7 6.38999 34.7C7.39999 34.7 8.21999 33.88 8.21999 32.87C8.21999 31.86 7.39999 31.04 6.38999 31.04ZM6.38999 35.6C4.86999 35.6 3.64999 34.38 3.64999 32.86C3.64999 31.34 4.86999 30.12 6.38999 30.12C7.90999 30.12 9.12999 31.34 9.12999 32.86C9.12999 34.38 7.90999 35.6 6.38999 35.6ZM28.3 31.04C27.3 31.04 26.47 31.86 26.47 32.87C26.47 33.88 27.29 34.7 28.3 34.7C29.31 34.7 30.13 33.88 30.13 32.87C30.13 31.86 29.31 31.04 28.3 31.04ZM28.3 35.6C26.78 35.6 25.56 34.38 25.56 32.86C25.56 31.34 26.78 30.12 28.3 30.12C29.82 30.12 31.04 31.34 31.04 32.86C31.04 34.38 29.82 35.6 28.3 35.6ZM32.86 26.47H1.82999V33.77C1.82999 35.79 3.45999 37.42 5.47999 37.42H29.21C31.23 37.42 32.86 35.79 32.86 33.77V26.47ZM32.86 12.78H1.82999V25.56H32.87V12.78H32.86ZM32.86 10.04C32.86 8.01999 31.23 6.38999 29.21 6.38999H5.47999C3.45999 6.38999 1.82999 8.01999 1.82999 10.04V11.87H32.87V10.04H32.86ZM29.21 39.25H26.47L28.3 43.81H26.47L24.64 39.25H10.04L8.20999 43.81H6.37999L8.20999 39.25H5.46999C2.44999 39.25 -0.0100098 36.79 -0.0100098 33.77V10.04C-0.0100098 7.01999 2.44999 4.55999 5.46999 4.55999H29.21C32.23 4.55999 34.69 7.01999 34.69 10.04V33.77C34.69 36.79 32.23 39.25 29.21 39.25Z" fill="#009EE3"/>
</g>
<defs>
<clipPath id="clip0_2_7123">
<rect width="34.69" height="43.82" fill="white"/>
</clipPath>
</defs>
</svg>

<svg width="35" height="44" fill="none" xmlns="http://www.w3.org/2000/svg"><g id="a" clip-path="url(#clip0_2_7123)"><path id="Vector" fill-rule="evenodd" clip-rule="evenodd" d="M12.78 3.65c-1 0-1.83-.82-1.83-1.83a1.83 1.83 0 111.83 1.83zm9.13 0c-1 0-1.83-.82-1.83-1.83a1.83 1.83 0 111.83 1.83zm-10.95 6.39h12.78V8.21H10.95v1.83h.01zm0-2.74h12.78c.5 0 .91.41.91.91v1.83c0 .5-.41.91-.91.91H10.95c-.5 0-.91-.41-.91-.91V8.21c0-.5.41-.91.91-.91h.01zM6.39 31.04c-1 0-1.83.82-1.83 1.83a1.83 1.83 0 101.83-1.83zm0 4.56c-1.52 0-2.74-1.22-2.74-2.74 0-1.52 1.22-2.74 2.74-2.74 1.52 0 2.74 1.22 2.74 2.74 0 1.52-1.22 2.74-2.74 2.74zm21.91-4.56c-1 0-1.83.82-1.83 1.83a1.83 1.83 0 101.83-1.83zm0 4.56c-1.52 0-2.74-1.22-2.74-2.74 0-1.52 1.22-2.74 2.74-2.74 1.52 0 2.74 1.22 2.74 2.74 0 1.52-1.22 2.74-2.74 2.74zm4.56-9.13H1.83v7.3c0 2.02 1.63 3.65 3.65 3.65h23.73c2.02 0 3.65-1.63 3.65-3.65v-7.3zm0-13.69H1.83v12.78h31.04V12.78h-.01zm0-2.74c0-2.02-1.63-3.65-3.65-3.65H5.48c-2.02 0-3.65 1.63-3.65 3.65v1.83h31.04v-1.83h-.01zm-3.65 29.21h-2.74l1.83 4.56h-1.83l-1.83-4.56h-14.6l-1.83 4.56H6.38l1.83-4.56H5.47c-3.02 0-5.48-2.46-5.48-5.48V10.04c0-3.02 2.46-5.48 5.48-5.48h23.74c3.02 0 5.48 2.46 5.48 5.48v23.73c0 3.02-2.46 5.48-5.48 5.48z" fill="#009EE3"/></g><defs><clipPath id="clip0_2_7123"><path fill="#fff" d="M0 0h34.69v43.82H0z"/></clipPath></defs></svg>
